files/resources/svgs/general/s-inbox-stack.svg

<svg width="24" height="24" viewBox="0 0 24 24" fill="none" xmlns="http://www.w3.org/2000/svg">
<path fill-rule="evenodd" clip-rule="evenodd" d="M1.5 9.83233V11.625C1.5 12.6605 2.33947 13.5 3.375 13.5H20.625C21.6605 13.5 22.5 12.6605 22.5 11.625V9.83233C22.5 9.11619 22.2438 8.42368 21.7778 7.87995L18.4929 4.04763C17.923 3.38269 17.0909 3 16.2151 3H7.78485C6.90908 3 6.07703 3.38269 5.50708 4.04763L2.22223 7.87995C1.75618 8.42368 1.5 9.1162 1.5 9.83233ZM7.78485 4.5C7.34697 4.5 6.93094 4.69134 6.64597 5.02381L3.88067 8.25H7.04584C8.0489 8.25 8.98559 8.7513 9.54199 9.5859L9.70609 9.83205C9.98429 10.2493 10.4526 10.5 10.9542 10.5H13.0458C13.5474 10.5 14.0157 10.2493 14.2939 9.83205L14.458 9.5859C15.0144 8.7513 15.9511 8.25 16.9542 8.25H20.1193L17.354 5.02381C17.0691 4.69134 16.653 4.5 16.2151 4.5H7.78485Z" fill="#0F172A"/>
<path d="M2.8125 15C2.08763 15 1.5 15.5876 1.5 16.3125V18C1.5 19.6569 2.84315 21 4.5 21H19.5C21.1569 21 22.5 19.6569 22.5 18V16.3125C22.5 15.5876 21.9124 15 21.1875 15H16.9542C15.9511 15 15.0144 15.5013 14.458 16.3359L14.2939 16.5821C14.0157 16.9993 13.5474 17.25 13.0458 17.25H10.9542C10.4526 17.25 9.98429 16.9993 9.70609 16.582L9.54199 16.3359C8.98559 15.5013 8.0489 15 7.04584 15H2.8125Z" fill="#0F172A"/>
</svg>

<svg xmlns="http://www.w3.org/2000/svg" viewBox="0 0 24 24" fill="currentColor" aria-hidden="true">
  <path fill-rule="evenodd" d="M1.5 9.832v1.793c0 1.036.84 1.875 1.875 1.875h17.25c1.035 0 1.875-.84 1.875-1.875V9.832a3 3 0 00-.722-1.952l-3.285-3.832A3 3 0 0016.215 3h-8.43a3 3 0 00-2.278 1.048L2.222 7.88A3 3 0 001.5 9.832zM7.785 4.5a1.5 1.5 0 00-1.139.524L3.881 8.25h3.165a3 3 0 012.496 1.336l.164.246a1.5 1.5 0 001.248.668h2.092a1.5 1.5 0 001.248-.668l.164-.246a3 3 0 012.496-1.336h3.165l-2.765-3.226a1.5 1.5 0 00-1.139-.524h-8.43z" clip-rule="evenodd"/>
  <path d="M2.813 15c-.725 0-1.313.588-1.313 1.313V18a3 3 0 003 3h15a3 3 0 003-3v-1.688c0-.724-.588-1.312-1.313-1.312h-4.233a3 3 0 00-2.496 1.336l-.164.246a1.5 1.5 0 01-1.248.668h-2.092a1.5 1.5 0 01-1.248-.668l-.164-.246A3 3 0 007.046 15H2.812z"/>
</svg>
